X:20
T:Bill Harte's  
B:CRE2.039 (Port Liam UÃÂÃÂÃÂÃÂ­ Airt)
F:file ID: cre.2/020bill_h
Q:160
L:1/8
M:6/8
R:jig
K:G
"D modal"
DED A2A|BAG ABA|DED ADD|BAG E2D|
"5"DED ADD|BAG A3|AdB A2c|BAG E2D|
"9"DED ADD|BAG AGA|DED ADd|BAG E2D|
"13"DED ADD|BAG A2A|AdB A2c|BAG E2D||
%
"17"AdB A2c|BAG A2A|AdB A2c|BAG E2D|
"21"AdB A2c|BAG A2A|AdB Ac/d/e|AB/A/G EDD|
"25"d2B A2c|BAG A2A|AdB AcA|BAG E2D|
"29"AdB A2c|BAG ABc|ded AcA|BAG E3|D6|]


%%%

